X:2042
T:Moghrey laa boaldyn 
C:John Radcliffe, The Howe
O:Isle of Man
S:Traditional
Z:Clague collection
B:Kiaull Vannin #42 
M:3/8 
L:1/8 
Q:220 
K:G 
G|GBd|dcc|cBB|BAA|GBd|dcd|edd|d2d|ddd|dcd|ede|edd|gfg|edB|cAF|G2||  
